X: 119
T:My O
M:3/4
C:Francis A. Fahy
R:
L:1/8
Z:added by Alf 
K:A
E2 | A,4 C2 | E4 A2 | F3E F2 | E2 C2 B,2 | C3B, C2 | A,4 A,2 | A,6 - | A,4 C2 |
E4 E2 | B4 G2 | A4 C2 | D4 F2 | F4 A2 | A2 G2 F2 | E6 - | E6 |
E4 E2 | B4 G2 | A4 C2 | D4 F2 | F4 A2 | A2 G2 F2 | E6 - | E4 E2 |
A,4 C2 | E4 A2 | F3E F2 | E2 C2 B,2 | C3B, C2 | A,4 A,2 | A,6 - | A,6 |]
